X:4
T:The Wind That Shakes The Barley                                                                   
M:C|                                                                                                
K:D                                                                                                 
B| A2 AB AFED|B2 BA BcdB|A2 AB AFED|gfed Bcd :|                                                     
e|f2 fd g2 ge|f2 fd Bcde|f2 fd g2 fg|afed Bcde|                                                     
f2 fd g2 ge|f2 fd Bcde|defg afbf|gfed Bcd ||"Fine"B A4 |>|
